svgs/inware.svg

<svg xmlns="http://www.w3.org/2000/svg" width="192" height="192" fill="none" xmlns:v="https://vecta.io/nano"><path fill-rule="evenodd" d="M71 18a6 6 0 1 1 12 0v19h26V18a6 6 0 1 1 12 0v19h6c15.464 0 28 12.536 28 28v6h19a6 6 0 1 1 0 12h-19v26h19a6 6 0 1 1 0 12h-19v6c0 15.464-12.536 28-28 28h-6v19a6 6 0 1 1-12 0v-19H83v19a6 6 0 1 1-12 0v-19h-6c-15.464 0-28-12.536-28-28v-6H18a6 6 0 1 1 0-12h19V83H18a6 6 0 1 1 0-12h19v-6c0-15.464 12.536-28 28-28h6V18zm-6 31h62c8.837 0 16 7.163 16 16v62c0 8.837-7.163 16-16 16H65c-8.837 0-16-7.163-16-16V65c0-8.837 7.163-16 16-16zm45 47c0 7.732-6.268 14-14 14s-14-6.268-14-14 6.268-14 14-14 14 6.268 14 14zm12 0c0 14.359-11.641 26-26 26s-26-11.641-26-26 11.641-26 26-26 26 11.641 26 26z" fill="#000"/></svg>

<svg width="192" height="192" viewBox="0 0 192 192" fill="none" xmlns="http://www.w3.org/2000/svg">
<path fill-rule="evenodd" clip-rule="evenodd" d="M71 18C71 14.6863 73.6863 12 77 12C80.3137 12 83 14.6863 83 18V37H109V18C109 14.6863 111.686 12 115 12C118.314 12 121 14.6863 121 18V37H127C142.464 37 155 49.536 155 65V71H174C177.314 71 180 73.6863 180 77C180 80.3137 177.314 83 174 83H155V109H174C177.314 109 180 111.686 180 115C180 118.314 177.314 121 174 121H155V127C155 142.464 142.464 155 127 155H121V174C121 177.314 118.314 180 115 180C111.686 180 109 177.314 109 174V155H83V174C83 177.314 80.3137 180 77 180C73.6863 180 71 177.314 71 174V155H65C49.536 155 37 142.464 37 127V121H18C14.6863 121 12 118.314 12 115C12 111.686 14.6863 109 18 109H37V83H18C14.6863 83 12 80.3137 12 77C12 73.6863 14.6863 71 18 71H37V65C37 49.536 49.536 37 65 37H71V18ZM65 49H127C135.837 49 143 56.1634 143 65V127C143 135.837 135.837 143 127 143H65C56.1634 143 49 135.837 49 127V65C49 56.1634 56.1634 49 65 49ZM110 96C110 103.732 103.732 110 96 110C88.268 110 82 103.732 82 96C82 88.268 88.268 82 96 82C103.732 82 110 88.268 110 96ZM122 96C122 110.359 110.359 122 96 122C81.6406 122 70 110.359 70 96C70 81.6406 81.6406 70 96 70C110.359 70 122 81.6406 122 96Z" fill="black"/>
</svg>
